X: 1
T:Kojo no Tsuki
N:https://en.wikipedia.org/wiki/K%C5%8Dj%C5%8D_no_Tsuki
C:
O:Japan
M:C
Q:1/4=120
L:1/4
K:F
"Dm" AAde|fed2|"Gm" BBAG|"A" A3z|"Dm" AAde|
w:Ha ru ko--yo--no; ha na no e n. Me gu ru sa
fed2|"G" BG "A" A>A|"Dm" D3z|"Dm" FFED|"Gm" B>B "Dm" A2|"Bb" GA "Gm" B>B|
w:ka zu ki, ka ge sa si te. chi yo no ma tsu ga e, ma ki i de,
"A" A3z|"Dm" AAde|"Gm" fe "Dm" d2|"Gm" BG "A" A>A|"Dm" D3z|]
w:shi. Mu ka shi no hi ka ri, i ma i zu ko.
